X:8089
T:WHTCOKDC- Ranting Highland Man (different from A, B)
O:england
S:R. Bride's 24 CD's for 1769
Q:1/4=120
L:1/8
M:C|
K:A
e|A/A/A cA ~c3/2B/Ac|B/B/B =GB =gBBc|\
A/A/A eA ~c3/2B/Ac|B/B/B {a/}gf/g/ aA A::\
f/g/|aefd cdec|B/B/B =GB gB Bf/g/|\
aefd cdec|B/B/B {a}(~g3/2f/4g/4) aA A:|]


